symbols/web/light/materialsymbolsoutlined/light_wght500grad200fill1_20px.svg

<svg xmlns="http://www.w3.org/2000/svg" height="20" width="20"><path d="M10 18.479q-1.625 0-2.802-1.125t-1.24-2.729h-1.75q-1.02 0-1.729-.708-.708-.709-.708-1.729 0-3.105 2.01-5.292 2.011-2.188 4.99-2.646V1.438h2.458V4.25q2.979.458 4.99 2.646 2.01 2.187 2.01 5.292 0 1.02-.708 1.729-.709.708-1.729.708h-1.75q-.063 1.604-1.24 2.729T10 18.479Zm-5.792-6.291h11.584q0-2.396-1.677-3.98Q12.438 6.625 10 6.625T5.885 8.208q-1.677 1.584-1.677 3.98Z"/></svg>

<svg xmlns="http://www.w3.org/2000/svg" height="20" width="20"><path d="M10 18.479Q8.375 18.479 7.198 17.354Q6.021 16.229 5.958 14.625H4.208Q3.188 14.625 2.479 13.917Q1.771 13.208 1.771 12.188Q1.771 9.083 3.781 6.896Q5.792 4.708 8.771 4.25V1.438H11.229V4.25Q14.208 4.708 16.219 6.896Q18.229 9.083 18.229 12.188Q18.229 13.208 17.521 13.917Q16.812 14.625 15.792 14.625H14.042Q13.979 16.229 12.802 17.354Q11.625 18.479 10 18.479ZM4.208 12.188H15.792Q15.792 9.792 14.115 8.208Q12.438 6.625 10 6.625Q7.562 6.625 5.885 8.208Q4.208 9.792 4.208 12.188ZM10 16.042Q10.625 16.042 11.062 15.635Q11.5 15.229 11.521 14.625H8.479Q8.5 15.25 8.938 15.646Q9.375 16.042 10 16.042ZM10 16.125Q9.333 16.125 8.885 15.698Q8.438 15.271 8.417 14.625H11.583Q11.562 15.271 11.115 15.698Q10.667 16.125 10 16.125Z"/></svg>
